X: 35401
T: Rothiemurchus Rant
R: strathspey
M: 4/4
K: Cmajor
|:G|EDED EG (3GGG|cGAG cGAc|EDED EG (3GGG|AcGc EDD:|
|:g|e2 de dedA|cded cAcG|A2 ag e2 dc|AcGc EDD:|
|:g|egga gagd|eaag abae|egde cdec|eage d3:|
|:g|e2 dcde a2|geed c2 Ac|GAcd e2 dc|AcGc EDD:|

